app/img/tree.svg

<svg xmlns="http://www.w3.org/2000/svg" preserveAspectRatio="xMidYMid" width="49" height="59"><path d="M38.107 49.938h2.866c4.135 0 7.582 3.124 8.018 7.267.048.459-.099.919-.404 1.261a1.597 1.597 0 0 1-1.188.534H1.601c-.472 0-.917-.209-1.222-.573a1.632 1.632 0 0 1-.355-1.324 5.649 5.649 0 0 1 5.379-4.728 8.893 8.893 0 0 1 6.852-3.261c1.688 0 3.308.477 4.708 1.364V39.607c-.707.124-1.427.187-2.158.187-6.882 0-12.481-5.648-12.481-12.59 0-1.621.3-3.194.892-4.682a12.304 12.304 0 0 1-1.753-6.348c0-6.767 5.458-12.272 12.166-12.272.661 0 1.321.054 1.972.161A12.08 12.08 0 0 1 24.644 0c3.469 0 6.734 1.474 9.043 4.062.65-.106 1.311-.161 1.971-.161 6.708 0 12.166 5.506 12.166 12.273 0 2.252-.605 4.435-1.753 6.348.592 1.487.892 3.06.892 4.682 0 6.942-5.598 12.59-12.48 12.59h-2.158v7.74a10.308 10.308 0 0 1 5.782 2.404zm-5.782 7.206H47.13c-.448-3.068-3.051-5.351-6.157-5.351-.802 0-1.584.153-2.326.455a.914.914 0 0 1-1.007-.218 8.542 8.542 0 0 0-5.315-2.633v7.747zm-6.596 0h4.756V39.135c-.408-.14-.811-.301-1.207-.485a17.684 17.684 0 0 1-4.634.616c-1.571 0-3.128-.207-4.635-.616-.396.183-.799.345-1.207.485v12.138c.082-.003.164-.005.247-.005 3.407 0 6.23 2.562 6.68 5.876zm-13.474-6.175a7.055 7.055 0 0 0-5.667 2.888.917.917 0 0 1-.789.375 3.806 3.806 0 0 0-3.906 2.912h21.975c-.432-2.287-2.429-4.021-4.82-4.021-.346 0-.696.038-1.038.112a.913.913 0 0 1-.836-.243 6.974 6.974 0 0 0-4.919-2.023zm22.228-13.03c5.867 0 10.641-4.816 10.641-10.735 0-1.528-.312-3.005-.927-4.388a.935.935 0 0 1 .073-.892 10.435 10.435 0 0 0 1.715-5.75c0-5.744-4.633-10.417-10.327-10.417-.718 0-1.435.075-2.134.223a.914.914 0 0 1-.899-.319 10.265 10.265 0 0 0-7.981-3.806 10.26 10.26 0 0 0-7.981 3.807.917.917 0 0 1-.899.318 10.325 10.325 0 0 0-2.135-.223c-5.694 0-10.326 4.673-10.326 10.417 0 2.055.593 4.044 1.715 5.75a.935.935 0 0 1 .072.892 10.732 10.732 0 0 0-.927 4.388c0 5.919 4.774 10.735 10.642 10.735a10.46 10.46 0 0 0 4.712-1.108.913.913 0 0 1 .665-.059c1.445.423 2.946.638 4.462.638 1.515 0 3.017-.215 4.461-.638a.908.908 0 0 1 .665.059 10.465 10.465 0 0 0 4.713 1.108zm-12.62 3.95c.508 0 .92.416.92.928v3.134a.924.924 0 0 1-.92.927.924.924 0 0 1-.92-.927v-3.134c0-.512.412-.928.92-.928zm5.128 4.041c.508 0 .92.415.92.928v5.194a.924.924 0 0 1-.92.928.924.924 0 0 1-.919-.928v-5.194c0-.513.412-.928.919-.928z" fill-rule="evenodd"/></svg>

<svg xmlns="http://www.w3.org/2000/svg" xmlns:xlink="http://www.w3.org/1999/xlink" preserveAspectRatio="xMidYMid" width="49" height="59" viewBox="0 0 49 59">
  <defs>
    <style>
      .cls-1 {
        fill: #000;
        fill-rule: evenodd;
      }
    </style>
  </defs>
  <path d="M38.107,49.938 L40.973,49.938 C45.108,49.938 48.555,53.062 48.991,57.205 C49.039,57.664 48.892,58.124 48.587,58.466 C48.284,58.805 47.851,59.000 47.399,59.000 L1.601,59.000 C1.129,59.000 0.684,58.791 0.379,58.427 C0.072,58.060 -0.057,57.577 0.024,57.103 C0.479,54.424 2.725,52.464 5.403,52.375 C7.082,50.325 9.609,49.114 12.255,49.114 C13.943,49.114 15.563,49.591 16.963,50.478 L16.963,39.607 C16.256,39.731 15.536,39.794 14.805,39.794 C7.923,39.794 2.324,34.146 2.324,27.204 C2.324,25.583 2.624,24.010 3.216,22.522 C2.068,20.609 1.463,18.426 1.463,16.174 C1.463,9.407 6.921,3.902 13.629,3.902 C14.290,3.902 14.950,3.956 15.601,4.063 C17.910,1.474 21.175,-0.000 24.644,-0.000 C28.113,-0.000 31.378,1.474 33.687,4.062 C34.337,3.956 34.998,3.901 35.658,3.901 C42.366,3.901 47.824,9.407 47.824,16.174 C47.824,18.426 47.219,20.609 46.071,22.522 C46.663,24.009 46.963,25.582 46.963,27.204 C46.963,34.146 41.365,39.794 34.483,39.794 L32.325,39.794 L32.325,47.534 C34.464,47.720 36.462,48.551 38.107,49.938 ZM32.325,57.144 L47.130,57.144 C46.682,54.076 44.079,51.793 40.973,51.793 C40.171,51.793 39.389,51.946 38.647,52.248 C38.299,52.389 37.900,52.304 37.640,52.030 C36.207,50.526 34.346,49.611 32.325,49.397 L32.325,57.144 ZM25.729,57.144 L30.485,57.144 L30.485,39.135 C30.077,38.995 29.674,38.834 29.278,38.650 C27.771,39.059 26.214,39.266 24.644,39.266 C23.073,39.266 21.516,39.059 20.009,38.650 C19.613,38.833 19.210,38.995 18.802,39.135 L18.802,51.273 C18.884,51.270 18.966,51.268 19.049,51.268 C22.456,51.268 25.279,53.830 25.729,57.144 ZM12.255,50.969 C10.030,50.969 7.912,52.049 6.588,53.857 C6.404,54.108 6.107,54.249 5.799,54.232 C5.731,54.229 5.662,54.227 5.593,54.227 C3.823,54.227 2.309,55.438 1.893,57.144 L23.868,57.144 C23.436,54.857 21.439,53.123 19.048,53.123 C18.702,53.123 18.352,53.161 18.010,53.235 C17.708,53.301 17.394,53.209 17.174,52.992 C15.850,51.688 14.103,50.969 12.255,50.969 ZM34.483,37.939 C40.350,37.939 45.124,33.123 45.124,27.204 C45.124,25.676 44.812,24.199 44.197,22.816 C44.068,22.526 44.096,22.189 44.270,21.924 C45.392,20.218 45.985,18.229 45.985,16.174 C45.985,10.430 41.352,5.757 35.658,5.757 C34.940,5.757 34.223,5.832 33.524,5.980 C33.189,6.051 32.842,5.928 32.625,5.661 C30.653,3.242 27.744,1.855 24.644,1.855 C21.543,1.855 18.634,3.242 16.663,5.662 C16.445,5.928 16.098,6.051 15.764,5.980 C15.065,5.832 14.347,5.757 13.629,5.757 C7.935,5.757 3.303,10.430 3.303,16.174 C3.303,18.229 3.896,20.218 5.018,21.924 C5.192,22.189 5.219,22.526 5.090,22.816 C4.475,24.199 4.163,25.676 4.163,27.204 C4.163,33.123 8.937,37.939 14.805,37.939 C16.459,37.939 18.044,37.566 19.517,36.831 C19.724,36.728 19.961,36.707 20.182,36.772 C21.627,37.195 23.128,37.410 24.644,37.410 C26.159,37.410 27.661,37.195 29.105,36.772 C29.190,36.747 29.276,36.735 29.362,36.735 C29.503,36.735 29.642,36.767 29.770,36.831 C31.243,37.566 32.829,37.939 34.483,37.939 ZM21.863,41.889 C22.371,41.889 22.783,42.305 22.783,42.817 L22.783,45.951 C22.783,46.463 22.371,46.878 21.863,46.878 C21.355,46.878 20.943,46.463 20.943,45.951 L20.943,42.817 C20.943,42.305 21.355,41.889 21.863,41.889 ZM26.991,45.930 C27.499,45.930 27.911,46.345 27.911,46.858 L27.911,52.052 C27.911,52.565 27.499,52.980 26.991,52.980 C26.484,52.980 26.072,52.565 26.072,52.052 L26.072,46.858 C26.072,46.345 26.484,45.930 26.991,45.930 Z" class="cls-1"/>
</svg>
